X:1
T:Anne Drove
C:Sarah Gowan Feb 2006
M:C
L:1/4
K:Am
"Am(C)"e>a ed | cBAE |"Em" e>a ed |"F" cBA2:|
"Am(F D)"A A/B/ cB | AGAE |"F" A A/B/ cB | AGA2:|
"Am"c'>b ag | edcA |"C" c c/A/"G" BG|"F"AG"Em"EG|
"Am"c'>b ag | edcA | "C"c c/A/"G" BG|"F"ABcd:|
W:Altermate chords for A/B part Am C F D
